!!!!SEGMENT: pl-wtm--r-577-m_moniuszko-stanislaw--mildo-krolowo-blagamy-cie.krn
!!!cenid: 18xx:3012
!!!COM: Moniuszko, Stanisław
!!!COM-rismID: pe30008351
!!!CDT: 1819/05/05-1872/06/04
!!!CNT: Polish
!!!OTL: Mildo królowo błagamy Cię
!!!PDT: 1850
!!!AGN: Secular
!!!SMS-siglum: PL-Wtm
!!!SMS-shelfmark: R 577/M
!!!SMS-shelfwork: W
!!!SMS-variant:
!!!SMS-altvar:
!!!NIFC-rismSourceID: 1001090768
!!!NIFC-islandoraID:
!!!URL-pdf-islandora:
!!!URL-scan:
!!!ONB-nifc:
!!!AIN: 1 organ
!!!key:
**kern	**kern	**dynam
*part1	*part1	*part1
*staff2	*staff1	*
*Iorgan	*Iorgan	*
*I"[Organ]	*I"[Organ]	*
*clefF4	*clefG2	*
*k[b-]	*k[b-]	*
*F:	*F:	*
*M4/4	*M4/4	*
*met(c)	*met(c)	*
=1	=1	=1
*2\right	*2\right	*
!	!LO:TX:a:t=(8)	!
!	!LO:TX:a:t=P:problem=all/right&colon; global	!
2F\	(>2a 2f 2c/	.
4GG/	4b- 4f 4d/	.
4C/	4g 4e 4c/	.
=2	=2	=2
1F 1C 1FF;>	1a 1f 1c 1A;>)	.
=3	=3	=3
1r	(<2a 2f/	.
.	4g 4e/	.
.	4b- 4g/	.
=4	=4	=4
1r	1a 1f)	.
=5	=5	=5
1ryy	(<2a 2f/	.
.	4g 4e/	.
.	8.b-L 8.g/	.
.	16aJk 16f/	.
=6	=6	=6
1ryy	1a [<1f)	.
=7	=7	=7
*	*^	*
1ryy	(>2cc 2a/	1f]	.
.	2dd 2b-/	.	.
*	*v	*v	*
=8	=8	=8
1ryy	2.cc 2.a 2.f/)	.
.	4a 4f/	.
!!LO:LB:g=original
=9	=9	=9
1c	(<2a 2f/	.
.	4g 4e/	.
.	4b- 4g/	.
=10	=10	=10
[>1f	1a)	.
=11	=11	=11
!	!	!LO:HP:b
1f_>	(>2cc 2a/	<
.	2dd 2b-/	[[
=12	=12	=12
*	*^	*
!	!	!	!LO:HP:b
1f]	2.ff/	1a	>
.	4cc/)	.	]]
*	*v	*v	*
=13	=13	=13
1c	N(<2a 2f/	.
.	4g 4e/	.
.	4b- 4g/	.
=14	=14	=14
1f>N)	2a/	.
.	2rb	.
=15	=15	=15
*^	*	*
!	!	!LO:S:s=2:note:problem=note-level slur	!
2ryy	2F\	2c/ N(>2A</	.
4G 4E/	2C\	2c/	.
4B- 4G/	.	.	.
*v	*v	*	*
=16	=16	=16
1A 1FN)	1c	.
*	*clefF4	*
!!LO:LB:g=original
=17	=17	=17
*^	*^	*
2F\	2ryy	1c	(>2A\	.
4E/	2C\	.	4G\	.
8.G/L	.	.	8.B-\L	.
16F/Jk	.	.	16A\Jk)	.
*v	*v	*	*	*
*	*v	*v	*
=18	=18	=18
[<1F	[>1c [>1A	.
=19	=19	=19
1F_>	(>2c] 2A\]	.
.	2d 2B-\	.
=20	=20	=20
1F]	2.c 2.A\)	.
.	4A\	.
=21	=21	=21
1C	(>2A 2F\	.
.	4G 4E\	.
.	4B- 4G\	.
=22	=22	=22
[>1F	[>1A)	.
=23	=23	=23
!	!	!LO:HP:b
1F_>	(>2c 2A\]	<
.	2d 2B-\	[[
=24	=24	=24
!	!	!LO:HP:b
1F]	(>2.f 2.A\)	>
.	4c 4A\)	]]
=25	=25	=25
!	!LO:TX:a:t=P:problem=niejednoznaczne zakończenie łuku	!
1C	(>2A 2F\	.
.	4G 4E\	.
.	4c 4C\)	.
*	*clefG2	*
!!LO:LB:g=original
=26	=26	=26
4F\	(<2cc 2a 2f/	.
4r	.	.
2r	4cc 4g 4e/	.
.	4cc 4b- 4g/	.
=27	=27	=27
[>1c [>1A [>1F	2cc 2a 2f/)	.
.	2r	.
=28	=28	=28
*	*^	*
8c] 8A] 8F\]	1cc	N(>2a 2f\	.
8r	.	.	.
4r	.	.	.
2r	.	4g 4e\	.
.	.	8.b-L 8.g\	.
.	.	16aJk 16f\	.
*	*v	*v	*
=29	=29	=29
1c 1A 1F	1cc 1a [<1fN)	.
=30	=30	=30
*	*^	*
4c 4A 4F\	(>2cc 2a/	1f]	.
4r	.	.	.
2r	2dd 2b-/	.	.
*	*v	*v	*
=31	=31	=31
[>1c 1A 1F	4cc 4a 4f/)	.
.	4r	.
.	2r	.
=32	=32	=32
*	*^	*
2c] 2C\	[>1cc	2a 2f\	.
2r	.	4g 4e\	.
.	.	4b- 4g\	.
*	*v	*v	*
=33	=33	=33
2c 2A 2F\	2cc] 2a 2f/	.
4A 4F\	2r	.
4c 4A 4F\	.	.
!!LO:LB:g=original
=34	=34	=34
!	!	!LO:S:s=1:note:problem=note-level slur
!	!	!LO:S:s=2:note:problem=note-level slur
(>2c [>2F (<2E^>\	(>2cc (>2a [<2f/	.
!	!	!LO:S:s=1:note:problem=note-level slur
!	!	!LO:S:s=2:note:problem=note-level slur
4B- 4F] 4D\))	4dd) 4b-) 4f/]	.
4B- 4F 4BB-\	4dd 4b- 4f/	.
=35	=35	=35
*^	*	*
2c/	1F	1ff 1a 1f	.
4A/	.	.	.
4c/	.	.	.
=36	=36	=36	=36
*	*	*^	*
2c/	2c\	[>2ff^>/	2cc 2a\	.
2r	2ryy	8.ff/L]	2b- 2g\	.
.	.	16ee/K	.	.
.	.	8.dd/	.	.
.	.	16cc/Jk	.	.
*v	*v	*	*	*
=37	=37	=37	=37
!	!	!LO:S:s=1:note:problem=note-level slur	!
!	!	!LO:S:s=2:note:problem=note-level slur	!
[>2c^>\	2.cc/	(<2a (<2f\	.
!	!	!LO:S:s=1:note:problem=note-level slur	!
!	!	!LO:S:s=2:note:problem=note-level slur	!
8.c\L]	.	4g) 4e\)	.
16B-\K	.	.	.
8.A\	4cc/	4cc\	.
16G\Jk	.	.	.
=38	=38	=38	=38
8F\	[>2ff^>/	2cc 2a\	.
8r	.	.	.
8A\	.	.	.
8r	.	.	.
4C/	8.ff/L]	2b- 2g\	.
.	16ee/K	.	.
4r	8.dd/	.	.
.	16cc/Jk	.	.
=39	=39	=39	=39
!	!	!LO:S:s=1:note:problem=note-level slur	!
!	!	!LO:S:s=2:note:problem=note-level slur	!
[>2c^>\	[>2cc/	(>2a (>2f\	.
!	!	!LO:S:s=1:note:problem=note-level slur	!
!	!	!LO:S:s=2:note:problem=note-level slur	!
8.c\L]	2cc/]	4g) 4e\)	.
16B-\K	.	.	.
8.A\	.	4cc\	.
16G\Jk	.	.	.
=40	=40	=40	=40
8F\	[>2ff^>/	2a 2f\	.
8r	.	.	.
8A\	.	.	.
8r	.	.	.
4C/	8.ff/L]	2g\	.
.	16ee/K	.	.
4r	8.dd/	.	.
.	16cc/Jk	.	.
!!LO:PB:g=original
=41	=41	=41	=41
1r	4.cc/	2a 2f\	.
.	8cc#X/	.	.
.	4dd/	4b- 4f\	.
.	4ee/	4b- 4g\	.
*	*v	*v	*
=42	=42	=42
*^	*	*
!	!	!LO:TX:a:t=(&colon;grand jeu&colon;)	!
2F/	1C 1FF	2ff 2a 2f/	.
2G/	.	4ee 4cc 4g/	.
.	.	4gg 4ee 4cc 4b-\	.
*v	*v	*	*
=43	=43	=43
2F N[<2FF/	1ff 1cc 1a	.
4AA/	.	.
4C/	.	.
=44	=44	=44
*^	*	*
2D/	1FFN_<	2ff 2a 2f/	.
[>2C/	.	4ee 4cc 4g/	.
.	.	4gg 4ee 4cc 4b-\	.
=45	=45	=45	=45
4.C/]	1FF]	1ff 1cc 1a	.
8F/	.	.	.
4C/	.	.	.
4AA/	.	.	.
*v	*v	*	*
=46	=46	=46
[>1F N[<1FF	2ff 2cc 2a [<2f\	.
*	*2\left	*
.	2dd 2b- 2f\]	.
*	*2\right	*
=47	=47	=47
*^	*	*
4F/]	1FFN]	1ff 1cc 1a 1f	.
4C/	.	.	.
4AA/	.	.	.
8.D/L	.	.	.
16C/Jk	.	.	.
*v	*v	*	*
!!LO:LB:g=original
=48	=48	=48
1C 1CC	2ff 2cc 2a 2f\	.
.	4ee 4cc 4g\	.
.	4gg 4cc 4b- 4g\	.
=49	=49	=49
2F 2FF/	1ff 1cc 1a 1f	.
4A 4AA/	.	.
4c 4C/	.	.
=50	=50	=50
!	!	!LO:DY:b:rj
2e-X 2E-X\	2ff 2cc 2a 2f\	ff
4d 4D\	4ff 4b- 4f\	.
4B- 4BB-/	4gg 4ff 4dd 4g\	.
=51	=51	=51
*	*^	*
4F/	2.aa/	1cc 1a	.
8.AA/L	.	.	.
16C/Jk	.	.	.
4F 4FF/	.	.	.
4A 4AA/	4ff/	.	.
=52!|:	=52!|:	=52!|:	=52!|:
[>2c [>2C\	1cc	2a 2f\	.
8.c]L 8.C\]	.	2g 2e\	.
16B-K 16BB-\	.	.	.
8.A 8.AA\	.	.	.
16GJk 16GG\	.	.	.
=53	=53	=53	=53
8F 8FF/	[>2ff/	2a 2f\	.
8r	.	.	.
8A 8AA/	.	.	.
8r	.	.	.
2C 2CC/	8.ff/L]	4b- 4g\	.
.	16ee/K	.	.
.	8.dd/	4b- 4e\	.
.	16cc/Jk	.	.
*	*v	*v	*
!!LO:LB:g=original
=54:|!	=54:|!	=54:|!
[>2c [>2C\	[<4cc [<4a 4f/	.
.	[<4ff 4cc] 4a\]	.
8.c]L 8.C\]	[>4gg 4ff] [<4cc [<4g\	.
16B-K 16BB-\	.	.
8.A 8.AA\	4gg] 4ee 4cc_< 4g\]	.
16GJk 16GG\	.	.
=55	=55	=55
8F 8FF/	4aa 4ff 4cc] [<4a\	.
8r	.	.
4A 4AA^</	4gg 4ee 4cc#X 4a^>\_<	.
4A 4D^</	4ff 4dd 4a^>\]	.
4c 4C^<\	4gg 4ee 4ccn 4b-^>\	.
=56	=56	=56
[>1F [>1C [>1FF	[>1aa [>1ff 1cc [>1a	.
=57	=57	=57
*rep	*rep	*
1F] 1C] 1FF]	1aa] 1ff] 1cc 1a]	.
*Xrep	*Xrep	*
=58	=58	=58
*	*^	*
[>1F [>1FF	(>2aa/	2.cc 2.a\	.
.	4ff/	.	.
.	4cc/	4a\	.
=59	=59	=59	=59
1F] 1FF]	2ff/	2.a\	.
.	4cc/	.	.
.	4a/)	4f\	.
*	*v	*v	*
=60	=60	=60
1F 1FF;>	1f;>	.
==	==	==
*-	*-	*-
!!!system-decoration: {(s1,s2)}
!!!RDF**kern: > = above
!!!RDF**kern: < = below
!!!RDF**kern: N = linked
!!!ENC: Tomasz Grochalski
!!!END: 2021-08-31
!!!ENC: Antoni Szymański
!!!END: 2021-09-26
!!!YEC: Copyright 2022 Narodowy Instytut Fryderyka Chopina (https://polishscores.org)
!!!YEM: Licence CC BY 4.0 (https://creativecommons.org/licenses/by/4.0)
